dist/flags/l/646.svg

<svg width="32" height="24" viewBox="0 0 32 24" fill="none" xmlns="http://www.w3.org/2000/svg">
<mask id="mask0" mask-type="alpha" maskUnits="userSpaceOnUse" x="0" y="0" width="32" height="24">
<rect width="32" height="24" fill="white"/>
</mask>
<g mask="url(#mask0)">
<path fill-rule="evenodd" clip-rule="evenodd" d="M0 0V24H32V0H0Z" fill="#FECA00"/>
<mask id="mask1" mask-type="alpha" maskUnits="userSpaceOnUse" x="0" y="0" width="32" height="24">
<path fill-rule="evenodd" clip-rule="evenodd" d="M0 0V24H32V0H0Z" fill="white"/>
</mask>
<g mask="url(#mask1)">
<path fill-rule="evenodd" clip-rule="evenodd" d="M0 0V14H32V0H0Z" fill="#3CA5D9"/>
<path fill-rule="evenodd" clip-rule="evenodd" d="M0 18V24H32V18H0Z" fill="#5A962A"/>
<path fill-rule="evenodd" clip-rule="evenodd" d="M24.0818 11.8656C24.0487 11.8664 24.0154 11.8668 23.982 11.8668C23.9535 11.8668 23.925 11.8665 23.8966 11.8659L23.2921 13.8398L23.1643 11.7838C23.103 11.7712 23.0423 11.7571 22.9821 11.7418L21.9354 13.5217L22.2898 11.495C22.2328 11.4685 22.1764 11.4407 22.1209 11.4116L20.6894 12.9027L21.5058 11.0139C21.456 10.9749 21.4073 10.9347 21.3595 10.8934L19.6214 12.0162L20.8538 10.3675C20.8141 10.3177 20.7755 10.2669 20.7381 10.2152L18.7887 10.9099L20.3691 9.58953C20.3418 9.53135 20.3158 9.47239 20.2912 9.4127L18.2365 9.64357L20.0798 8.72045C20.0668 8.65722 20.0553 8.59345 20.0454 8.52916L17.9944 8.28534L20.002 7.80786C20.0041 7.74254 20.0078 7.67762 20.013 7.61315L18.0755 6.9085L20.1384 6.90187C20.1557 6.83861 20.1746 6.77598 20.1951 6.71403L18.4753 5.58727L20.4845 6.05147C20.5162 5.99415 20.5493 5.93769 20.5837 5.88214L19.1725 4.39286L21.0208 5.30363C21.0647 5.25539 21.1098 5.20823 21.1561 5.1622L20.1293 3.38969L21.7164 4.69831C21.7701 4.66153 21.8248 4.62602 21.8804 4.59182L21.2942 2.63182L22.5341 4.26812C22.5947 4.24476 22.6559 4.22282 22.7179 4.20234L22.6044 2.16011L23.4304 4.03744C23.4942 4.02871 23.5584 4.02147 23.6231 4.01576L23.9892 2L24.3556 4.01709C24.42 4.023 24.4839 4.03042 24.5473 4.03932L25.3741 2.16011L25.2603 4.20705C25.3213 4.22744 25.3815 4.24925 25.4411 4.27244L26.6843 2.63182L26.0958 4.59934C26.15 4.63289 26.2032 4.6677 26.2556 4.70371L27.8492 3.38969L26.8171 5.17132C26.8617 5.21602 26.9053 5.26177 26.9478 5.30854L28.806 4.39286L27.3861 5.89135C27.419 5.94488 27.4508 5.99925 27.4812 6.05442L29.5032 5.58727L27.7716 6.7218C27.791 6.7812 27.8091 6.84122 27.8257 6.90182L29.903 6.9085L27.9515 7.61824C27.9564 7.6799 27.9599 7.74197 27.962 7.8044L29.9841 8.28534L27.9184 8.53091C27.9089 8.59239 27.898 8.65339 27.8857 8.7139L29.742 9.64357L27.6735 9.41115C27.65 9.46841 27.6251 9.525 27.599 9.58088L29.1898 10.9099L27.2289 10.2111C27.193 10.261 27.1559 10.31 27.1177 10.3581L28.3571 12.0162L26.6107 10.888C26.5644 10.9282 26.5172 10.9674 26.4691 11.0055L27.2891 12.9027L25.8528 11.4066C25.7984 11.4352 25.7434 11.4626 25.6876 11.4888L26.0431 13.5217L24.9945 11.7385C24.935 11.7539 24.875 11.768 24.8144 11.7807L24.6864 13.8398L24.0818 11.8656ZM23.946 10.4148C25.3466 10.4148 26.482 9.29593 26.482 7.91569C26.482 6.53545 25.3466 5.41654 23.946 5.41654C22.5454 5.41654 21.41 6.53545 21.41 7.91569C21.41 9.29593 22.5454 10.4148 23.946 10.4148ZM25.4047 7.98885C25.4047 8.77819 24.7648 9.41808 23.9754 9.41808C23.1861 9.41808 22.5462 8.77819 22.5462 7.98885C22.5462 7.1995 23.1861 6.55962 23.9754 6.55962C24.7648 6.55962 25.4047 7.1995 25.4047 7.98885Z" fill="#FFDC17"/>
</g>
</g>
</svg>

<svg width="32" height="24" fill="none" xmlns="http://www.w3.org/2000/svg">
  <mask id="a" maskUnits="userSpaceOnUse" x="0" y="0" width="32" height="24">
    <path fill="#fff" d="M0 0h32v24H0z"/>
  </mask>
  <g mask="url(#a)">
    <path fill-rule="evenodd" clip-rule="evenodd" d="M0 0v24h32V0H0z" fill="#FECA00"/>
    <mask id="b" maskUnits="userSpaceOnUse" x="0" y="0" width="32" height="24">
      <path fill-rule="evenodd" clip-rule="evenodd" d="M0 0v24h32V0H0z" fill="#fff"/>
    </mask>
    <g mask="url(#b)" fill-rule="evenodd" clip-rule="evenodd">
      <path d="M0 0v14h32V0H0z" fill="#3CA5D9"/>
      <path d="M0 18v6h32v-6H0z" fill="#5A962A"/>
      <path d="M24.082 11.866a4.132 4.132 0 01-.185 0l-.605 1.974-.128-2.056a4.05 4.05 0 01-.182-.042l-1.047 1.78.355-2.027a3.95 3.95 0 01-.17-.083l-1.43 1.49.816-1.888a3.93 3.93 0 01-.146-.12l-1.739 1.122 1.233-1.649c-.04-.05-.078-.1-.116-.152l-1.95.695 1.581-1.32a4.042 4.042 0 01-.078-.177l-2.055.23 1.844-.923a3.889 3.889 0 01-.035-.19l-2.05-.245 2.007-.477c.002-.065.006-.13.011-.195l-1.938-.705 2.063-.006c.018-.063.037-.126.057-.188l-1.72-1.127 2.01.464c.031-.057.064-.113.099-.169l-1.412-1.49 1.849.912a3.64 3.64 0 01.135-.142L20.13 3.39l1.587 1.308a5.72 5.72 0 01.164-.106l-.586-1.96 1.24 1.636a4.98 4.98 0 01.184-.066l-.114-2.042.826 1.877c.064-.008.128-.016.193-.021L23.99 2l.367 2.017c.064.006.128.013.191.022l.827-1.879-.114 2.047a3.9 3.9 0 01.181.065l1.243-1.64-.588 1.967c.054.034.107.069.16.105L27.85 3.39l-1.032 1.781c.045.045.088.09.13.138l1.859-.916-1.42 1.498c.033.054.065.108.095.163l2.022-.467-1.731 1.135.054.18 2.077.006-1.951.71c.004.062.008.124.01.186l2.022.481-2.066.246c-.01.061-.02.122-.032.183l1.856.93-2.069-.233a3.902 3.902 0 01-.074.17l1.59 1.329-1.96-.699c-.036.05-.073.099-.111.147l1.24 1.658-1.747-1.128c-.047.04-.094.08-.142.117l.82 1.898-1.436-1.496c-.055.028-.11.056-.165.082l.355 2.033-1.049-1.784c-.059.016-.119.03-.18.043l-.128 2.059-.604-1.974zm-.136-1.451c1.4 0 2.536-1.12 2.536-2.5s-1.135-2.498-2.536-2.498c-1.4 0-2.536 1.118-2.536 2.499 0 1.38 1.135 2.499 2.536 2.499zm1.459-2.426a1.43 1.43 0 11-2.859 0 1.43 1.43 0 012.859 0z" fill="#FFDC17"/>
    </g>
  </g>
</svg>
